src/assets/images/pride/arrow-right.svg

<svg width="25" height="19" viewBox="0 0 25 19" fill="none" xmlns="http://www.w3.org/2000/svg">
<path d="M0.414429 10.5033H20.901L14.1242 17.1923L15.6099 18.6588L23.3249 11.0178H23.351L24.8106 9.57711L23.351 8.11066H23.3249L15.6099 0.469727L14.1242 1.93617L20.7446 8.44512H0.414429V10.5033Z" fill="#214E41"/>
</svg>

<svg width="25" height="19" fill="none" xmlns="http://www.w3.org/2000/svg"><path d="M.414 10.503h20.487l-6.777 6.69 1.486 1.466 7.715-7.641h.026l1.46-1.44-1.46-1.467h-.026L15.61.47l-1.486 1.466 6.62 6.51H.415v2.057Z" fill="#214E41"/></svg>
